assets/img/athletejuvo/persona2.svg

<?xml version="1.0" encoding="UTF-8"?>
<svg width="768px" height="1053px" viewBox="0 0 768 1053" version="1.1" xmlns="http://www.w3.org/2000/svg" xmlns:xlink="http://www.w3.org/1999/xlink">
    <!-- Generator: Sketch 52.5 (67469) - http://www.bohemiancoding.com/sketch -->
    <title>Artboard</title>
    <desc>Created with Sketch.</desc>
    <defs>
        <linearGradient x1="50%" y1="0%" x2="50%" y2="100%" id="linearGradient-1">
            <stop stop-color="#CFD9DF" offset="0%"></stop>
            <stop stop-color="#E2EBF0" offset="100%"></stop>
        </linearGradient>
        <rect id="path-2" x="118" y="412" width="568" height="682" rx="48"></rect>
        <filter x="-26.4%" y="-22.0%" width="152.8%" height="144.0%" filterUnits="objectBoundingBox" id="filter-3">
            <feMorphology radius="25" operator="dilate" in="SourceAlpha" result="shadowSpreadOuter1"></feMorphology>
            <feOffset dx="0" dy="0" in="shadowSpreadOuter1" result="shadowOffsetOuter1"></feOffset>
            <feGaussianBlur stdDeviation="25" in="shadowOffsetOuter1" result="shadowBlurOuter1"></feGaussianBlur>
            <feColorMatrix values="0 0 0 0 0   0 0 0 0 0   0 0 0 0 0  0 0 0 0.126217165 0" type="matrix" in="shadowBlurOuter1"></feColorMatrix>
        </filter>
        <circle id="path-4" cx="120" cy="120" r="120"></circle>
        <path d="M12,160 L-3.19744231e-14,160 L-3.19744231e-14,-1.42108547e-14 L264,-1.42108547e-14 L264,160 L252,160 C252,226.27417 198.27417,280 132,280 C65.72583,280 12,226.27417 12,160 Z" id="path-6"></path>
        <path d="M124,144.610951 L124,163 L128,163 C167.764502,163 200,195.235498 200,235 L200,244 L0,244 L0,235 C-4.86974701e-15,195.235498 32.235498,163 72,163 L76,163 L76,144.610951 C58.7626345,136.422372 46.3722246,119.687011 44.3051388,99.8812385 C38.4803105,99.0577866 34,94.0521096 34,88 L34,74 C34,68.0540074 38.3245733,63.1180731 44,62.1659169 L44,56 C44,25.072054 69.072054,5.68137151e-15 100,0 C130.927946,-5.68137151e-15 156,25.072054 156,56 L156,62.1659169 C161.675427,63.1180731 166,68.0540074 166,74 L166,88 C166,94.0521096 161.51969,99.0577866 155.694861,99.8812385 C153.627775,119.687011 141.237365,136.422372 124,144.610951 Z" id="path-8"></path>
        <path d="M165.624032,29.2681342 C202.760022,32.1373245 232,63.1798426 232,101.051724 L232,110 L32,110 L32,101.051724 C32,62.8348009 61.7752018,31.5722494 99.3929298,29.1967444 C99.1342224,30.2735458 99,31.3767131 99,32.5 C99,44.3741221 113.998461,54 132.5,54 C151.001539,54 166,44.3741221 166,32.5 C166,31.4015235 165.871641,30.3222877 165.624025,29.2681336 Z" id="path-10"></path>
        <polygon id="path-12" points="47.8916289 0.430054064 47.8916289 41.9204613 0.45345556 41.9204613 0.45345556 0.430054064 47.8916289 0.430054064"></polygon>
        <rect id="path-14" x="0" y="0" width="264" height="280"></rect>
        <path d="M90.9102919,55.3613196 L175.085702,55.3613196 C193.333279,44.8338001 196.759397,26.1510357 183.849606,9.92600089 C180.635746,5.88682054 175.085702,21.6755614 158.028596,22.6504878 C140.97149,23.6254143 142.608865,16.3498661 124.45759,19.0739248 C106.306316,21.7979835 108.311575,36.37843 96.4671989,39.8768239 C88.5709482,42.2090865 86.7186458,47.370585 90.9102919,55.3613196 Z" id="path-16"></path>
    </defs>
    <g id="Page-1" stroke="none" stroke-width="1" fill="none" fill-rule="evenodd">
        <g id="Artboard" transform="translate(-18.000000, -141.000000)">
            <g id="Rectangle">
                <use fill="black" fill-opacity="1" filter="url(#filter-3)" xlink:href="#path-2"></use>
                <use fill="url(#linearGradient-1)" fill-rule="evenodd" xlink:href="#path-2"></use>
            </g>
            <rect id="Rectangle" fill="url(#linearGradient-1)" x="63" y="298" width="679" height="818" rx="48"></rect>
            <g id="Avataaar/Circle" transform="translate(270.000000, 132.000000)">
                <g id="Circle" stroke-width="1" fill-rule="evenodd" transform="translate(12.000000, 40.000000)">
                    <mask id="mask-5" fill="white">
                        <use xlink:href="#path-4"></use>
                    </mask>
                    <use id="Circle-Background" fill="#E6E6E6" xlink:href="#path-4"></use>
                    <g id="Color/Palette/Blue-01" mask="url(#mask-5)" fill="#65C9FF">
                        <rect id="🖍Color" x="0" y="0" width="240" height="240"></rect>
                    </g>
                </g>
                <mask id="mask-7" fill="white">
                    <use xlink:href="#path-6"></use>
                </mask>
                <g id="Mask"></g>
                <g id="Avataaar" stroke-width="1" fill-rule="evenodd" mask="url(#mask-7)">
                    <g id="Body" transform="translate(32.000000, 36.000000)">
                        <mask id="mask-9" fill="white">
                            <use xlink:href="#path-8"></use>
                        </mask>
                        <use fill="#D0C6AC" xlink:href="#path-8"></use>
                        <g id="Skin/👶🏾-02-Dark-Brown" mask="url(#mask-9)" fill="#AE5D29">
                            <g transform="translate(-32.000000, 0.000000)" id="Color">
                                <rect x="0" y="0" width="264" height="244"></rect>
                            </g>
                        </g>
                        <path d="M156,94 L156,102 C156,132.927946 130.927946,158 100,158 C69.072054,158 44,132.927946 44,102 L44,94 C44,124.927946 69.072054,150 100,150 C130.927946,150 156,124.927946 156,94 Z" id="Neck-Shadow" fill-opacity="0.100000001" fill="#000000" mask="url(#mask-9)"></path>
                    </g>
                    <g id="Clothing/Graphic-Shirt" transform="translate(0.000000, 170.000000)">
                        <mask id="mask-11" fill="white">
                            <use xlink:href="#path-10"></use>
                        </mask>
                        <use id="Clothes" fill="#E6E6E6" fill-rule="evenodd" xlink:href="#path-10"></use>
                        <g id="Color/Palette/Heather" mask="url(#mask-11)" fill="#3C4F5C" fill-rule="evenodd">
                            <rect id="🖍Color" x="0" y="0" width="264" height="110"></rect>
                        </g>
                        <g id="Clothing/Graphic/Bear" mask="url(#mask-11)" fill-rule="evenodd" stroke-width="1">
                            <g transform="translate(77.000000, 58.000000)" id="Bear">
                                <g transform="translate(31.000000, 1.000000)">
                                    <mask id="mask-13" fill="white">
                                        <use xlink:href="#path-12"></use>
                                    </mask>
                                    <g id="Clip-75"></g>
                                    <path d="M34.4465814,31.5861741 C33.968066,34.4016565 30.3675711,38.9307388 27.2995299,35.97048 C23.8326433,32.6262918 31.5245196,31.1602447 28.7810969,28.3763859 C27.5974268,27.1761741 24.3685608,27.83928 22.7791175,27.96528 C21.289633,28.0833741 18.9133856,28.4198682 19.4834474,30.5900329 C19.9159423,32.2398918 21.1926433,31.5342918 21.8715711,32.4815153 C22.4069938,33.2301035 22.1798598,35.9887624 21.3826639,36.7492094 C20.3796124,37.7053271 19.193468,37.4123153 17.7975093,36.7996094 C14.6057567,35.39928 13.1212206,31.4868565 15.2228289,28.5829271 C19.3780454,22.8417741 35.2897979,21.5244565 34.4465814,31.5861741 M14.9853031,14.7244094 C15.9695505,14.2811859 17.132932,14.5213271 17.7173443,15.5110447 C18.5189938,16.8669035 17.3595711,18.6842682 15.7424165,18.4668565 C14.0347052,18.2365976 13.1726845,15.5481035 14.9853031,14.7244094 M32.9472,16.3787153 C32.0911175,19.3854212 27.3109113,16.0012094 30.0112825,14.08848 C31.5626227,12.9900565 33.4583753,14.5801271 32.9472,16.3787153 M47.8267052,23.16888 C47.5911588,20.7887153 46.9270763,18.5231859 45.7389526,16.4385035 C45.1164371,15.3460094 44.3464577,14.3276329 43.5492619,13.35768 C43.2483959,12.9930212 42.6432,12.34968 42.5264165,12.1446212 C41.8173031,10.90488 41.888066,11.7834212 42.2789938,10.3598682 C42.8950763,8.11657412 44.2262103,6.28043294 43.1627876,3.87062118 C42.1735918,1.62930353 39.5078598,0.576832941 37.1791175,0.443915294 C36.0914474,0.382150588 35.0017979,0.525938824 33.9720247,0.892574118 C32.9368082,1.26069176 31.9708701,2.53255059 31.0717361,2.79393882 C30.3740041,2.99702118 28.3872,2.33391529 27.6305814,2.28549176 C26.2356124,2.19605647 24.8332206,2.23558588 23.4387464,2.31859765 C21.8087258,2.41544471 18.0632412,3.58205647 16.5257567,3.19565647 C15.5108289,2.94069176 14.3172619,1.41485647 13.1449732,1.03191529 C11.852932,0.610432941 10.4673649,0.467632941 9.17829278,0.954338824 C6.89260206,1.81805647 5.17845773,4.50605647 5.12501443,6.89560941 C5.09680825,8.15066824 5.78018969,9.01092706 5.91528247,10.1469035 C6.11816907,11.8619859 6.35223093,10.5026682 5.42835464,11.8718682 C4.9577567,12.5690682 4.13284948,13.1822682 3.60385979,13.8537741 C0.778787629,17.4405741 -0.278696907,22.73208 0.974746392,27.0733976 C4.13284948,38.0131624 14.6423753,42.4676329 25.4136742,41.86728 C34.6648082,41.3509271 48.9782103,34.1491624 47.8267052,23.16888" id="Fill-74" fill="#FFFFFF" mask="url(#mask-13)"></path>
                                </g>
                            </g>
                        </g>
                    </g>
                    <g id="Face" transform="translate(76.000000, 82.000000)" fill="#000000">
                        <g id="Mouth/Twinkle" transform="translate(2.000000, 52.000000)" fill-opacity="0.599999964" fill-rule="nonzero">
                            <path d="M40,16 C40,21.371763 46.1581544,25 54,25 C61.8418456,25 68,21.371763 68,16 C68,14.8954305 67.050301,14 66,14 C64.7072748,14 64.1302316,14.9051755 64,16 C62.7575758,18.9378973 59.6832595,20.7163149 54,21 C48.3167405,20.7163149 45.2424242,18.9378973 44,16 C43.8697684,14.9051755 43.2927252,14 42,14 C40.949699,14 40,14.8954305 40,16 Z" id="Mouth"></path>
                        </g>
                        <g id="Nose/Default" transform="translate(28.000000, 40.000000)" fill-opacity="0.16">
                            <path d="M16,8 C16,12.418278 21.372583,16 28,16 C34.627417,16 40,12.418278 40,8" id="Nose"></path>
                        </g>
                        <g id="Eyes/Default-😀" transform="translate(0.000000, 8.000000)" fill-opacity="0.599999964">
                            <circle id="Eye" cx="30" cy="22" r="6"></circle>
                            <circle id="Eye" cx="82" cy="22" r="6"></circle>
                        </g>
                        <g id="Eyebrow/Outline/Default" fill-opacity="0.599999964">
                            <g id="I-Browse" transform="translate(12.000000, 6.000000)">
                                <path d="M3.63024536,11.1585767 C7.54515501,5.64986673 18.2779197,2.56083721 27.5230268,4.83118046 C28.5957248,5.0946055 29.6788665,4.43856013 29.9422916,3.36586212 C30.2057166,2.2931641 29.5496712,1.21002236 28.4769732,0.94659732 C17.7403633,-1.69001789 5.31209962,1.88699832 0.369754639,8.84142326 C-0.270109626,9.74178291 -0.0589363917,10.9903811 0.84142326,11.6302454 C1.74178291,12.2701096 2.9903811,12.0589364 3.63024536,11.1585767 Z" id="Eyebrow" fill-rule="nonzero"></path>
                                <path d="M61.6302454,11.1585767 C65.545155,5.64986673 76.2779197,2.56083721 85.5230268,4.83118046 C86.5957248,5.0946055 87.6788665,4.43856013 87.9422916,3.36586212 C88.2057166,2.2931641 87.5496712,1.21002236 86.4769732,0.94659732 C75.7403633,-1.69001789 63.3120996,1.88699832 58.3697546,8.84142326 C57.7298904,9.74178291 57.9410636,10.9903811 58.8414233,11.6302454 C59.7417829,12.2701096 60.9903811,12.0589364 61.6302454,11.1585767 Z" id="Eyebrow" fill-rule="nonzero" transform="translate(73.000154, 6.039198) scale(-1, 1) translate(-73.000154, -6.039198) "></path>
                            </g>
                        </g>
                    </g>
                    <g id="Top">
                        <mask id="mask-15" fill="white">
                            <use xlink:href="#path-14"></use>
                        </mask>
                        <g id="Mask"></g>
                        <g id="Top/Short-Hair/Frizzle" mask="url(#mask-15)">
                            <g transform="translate(-1.000000, 0.000000)">
                                <g id="Facial-Hair/-Blank" stroke="none" fill="none" transform="translate(49.000000, 72.000000)"></g>
                                <mask id="mask-17" fill="white">
                                    <use xlink:href="#path-16"></use>
                                </mask>
                                <use id="Hair-Maks" stroke="none" fill="#252E32" fill-rule="evenodd" xlink:href="#path-16"></use>
                                <g id="Color/Hair/Brown" stroke="none" fill="none" mask="url(#mask-17)" fill-rule="evenodd">
                                    <g transform="translate(1.000000, 0.000000)" fill="#2C1B18" id="Color">
                                        <rect x="0" y="0" width="264" height="280"></rect>
                                    </g>
                                </g>
                                <g id="Top/_Resources/Blank" stroke="none" fill="none" mask="url(#mask-17)">
                                    <g transform="translate(62.000000, 85.000000)"></g>
                                </g>
                            </g>
                        </g>
                    </g>
                </g>
            </g>
            <text id="Jason" font-family="Nunito-SemiBold, Nunito" font-size="45" font-weight="500" fill="#000000">
                <tspan x="346" y="494">Jason</tspan>
            </text>
            <text id="He-was-in-a-severe-c" font-family="Nunito-Regular, Nunito" font-size="30" font-weight="normal" fill="#000000">
                <tspan x="134" y="608">He was in a severe car crash a few </tspan>
                <tspan x="134" y="649">months ago and is currently recovering. </tspan>
                <tspan x="134" y="690"></tspan>
                <tspan x="134" y="731">He has been recommended a </tspan>
                <tspan x="532.43" y="731" font-family="Nunito-Bold, Nunito" font-weight="bold">lengthy</tspan>
                <tspan x="636.08" y="731"> </tspan>
                <tspan x="134" y="772">rehabilitation process. </tspan>
                <tspan x="134" y="813"></tspan>
                <tspan x="134" y="854">He is very </tspan>
                <tspan x="275.09" y="854" font-family="Nunito-Bold, Nunito" font-weight="bold">depressed and isolated</tspan>
                <tspan x="593.57" y="854"> and </tspan>
                <tspan x="134" y="895">seems to be losing faith in the </tspan>
                <tspan x="134" y="936">rehabilitation exercises as he </tspan>
                <tspan x="525.32" y="936" font-family="Nunito-Bold, Nunito" font-weight="bold">cannot </tspan>
                <tspan x="134" y="977" font-family="Nunito-Bold, Nunito" font-weight="bold">see his progress</tspan>
                <tspan x="357.23" y="977">.</tspan>
            </text>
            <text id="member-of-the-varsit" font-family="Nunito-SemiBold, Nunito" font-size="25" font-weight="500" fill="#686767">
                <tspan x="203.425" y="535">member of the varsity rowing team</tspan>
            </text>
        </g>
    </g>
</svg>

<svg width="768" height="1053" viewBox="0 0 768 1053" xmlns="http://www.w3.org/2000/svg" xmlns:xlink="http://www.w3.org/1999/xlink"><title>Artboard</title><defs><linearGradient x1="50%" y1="0%" x2="50%" y2="100%" id="c"><stop stop-color="#CFD9DF" offset="0%"/><stop stop-color="#E2EBF0" offset="100%"/></linearGradient><rect id="b" x="118" y="412" width="568" height="682" rx="48"/><filter x="-26.4%" y="-22%" width="152.8%" height="144%" filterUnits="objectBoundingBox" id="a"><feMorphology radius="25" operator="dilate" in="SourceAlpha" result="shadowSpreadOuter1"/><feOffset in="shadowSpreadOuter1" result="shadowOffsetOuter1"/><feGaussianBlur stdDeviation="25" in="shadowOffsetOuter1" result="shadowBlurOuter1"/><feColorMatrix values="0 0 0 0 0 0 0 0 0 0 0 0 0 0 0 0 0 0 0.126217165 0" in="shadowBlurOuter1"/></filter><circle id="d" cx="120" cy="120" r="120"/><path d="M12 160H0V0h264v160h-12c0 66.274-53.726 120-120 120S12 226.274 12 160z" id="f"/><path d="M124 144.611V163h4c39.765 0 72 32.235 72 72v9H0v-9c0-39.765 32.235-72 72-72h4v-18.389c-17.237-8.189-29.628-24.924-31.695-44.73C38.48 99.058 34 94.052 34 88V74c0-5.946 4.325-10.882 10-11.834V56c0-30.928 25.072-56 56-56s56 25.072 56 56v6.166c5.675.952 10 5.888 10 11.834v14c0 6.052-4.48 11.058-10.305 11.881-2.067 19.806-14.458 36.541-31.695 44.73z" id="h"/><path d="M165.624 29.268C202.76 32.138 232 63.18 232 101.052V110H32v-8.948c0-38.217 29.775-69.48 67.393-71.855A14.107 14.107 0 0 0 99 32.5C99 44.374 113.998 54 132.5 54c18.502 0 33.5-9.626 33.5-21.5 0-1.098-.128-2.178-.376-3.232z" id="j"/><path id="l" d="M47.892.43v41.49H.453V.43h47.439z"/><path id="n" d="M0 0h264v280H0z"/><path d="M90.91 55.361h84.176c18.247-10.527 21.673-29.21 8.764-45.435-3.214-4.04-8.764 11.75-25.821 12.724-17.058.975-15.42-6.3-33.571-3.576-18.152 2.724-16.146 17.304-27.99 20.803-7.897 2.332-9.75 7.494-5.558 15.484z" id="p"/></defs><g transform="translate(-18 -141)" fill="none" fill-rule="evenodd"><use fill="#000" filter="url(#a)" xlink:href="#b"/><use fill="url(#c)" xlink:href="#b"/><rect fill="url(#c)" x="63" y="298" width="679" height="818" rx="48"/><g transform="translate(270 132)"><g transform="translate(12 40)"><mask id="e" fill="#fff"><use xlink:href="#d"/></mask><use fill="#E6E6E6" xlink:href="#d"/><path d="M0 0h240v240H0z" mask="url(#e)" fill="#65C9FF"/></g><mask id="g" fill="#fff"><use xlink:href="#f"/></mask><g mask="url(#g)"><g transform="translate(32 36)"><mask id="i" fill="#fff"><use xlink:href="#h"/></mask><use fill="#D0C6AC" xlink:href="#h"/><path d="M0 0h264v244H0z" transform="translate(-32)" mask="url(#i)" fill="#AE5D29"/><path d="M156 94v8c0 30.928-25.072 56-56 56s-56-25.072-56-56v-8c0 30.928 25.072 56 56 56s56-25.072 56-56z" fill-opacity=".1" fill="#000" mask="url(#i)"/></g><g transform="translate(0 170)"><mask id="k" fill="#fff"><use xlink:href="#j"/></mask><use fill="#E6E6E6" xlink:href="#j"/><path d="M0 0h264v110H0z" mask="url(#k)" fill="#3C4F5C"/><g transform="translate(108 59)" mask="url(#k)"><mask id="m" fill="#fff"><use xlink:href="#l"/></mask><path d="M34.447 31.586c-.479 2.816-4.08 7.345-7.147 4.384-3.467-3.344 4.225-4.81 1.481-7.594-1.184-1.2-4.412-.537-6.002-.41-1.49.117-3.866.454-3.296 2.624.433 1.65 1.71.944 2.389 1.892.535.748.308 3.507-.49 4.267-1.002.956-2.189.663-3.584.05-3.192-1.4-4.677-5.312-2.575-8.216 4.155-5.741 20.067-7.059 19.224 3.003M14.985 14.724c.985-.443 2.148-.203 2.732.787.802 1.356-.357 3.173-1.975 2.956-1.707-.23-2.57-2.919-.757-3.743m17.962 1.655c-.856 3.006-5.636-.378-2.936-2.29 1.552-1.099 3.447.491 2.936 2.29m14.88 6.79c-.236-2.38-.9-4.646-2.088-6.73-.623-1.093-1.393-2.111-2.19-3.081-.3-.365-.906-1.008-1.023-1.213-.709-1.24-.638-.362-.247-1.785.616-2.243 1.947-4.08.884-6.49-.99-2.24-3.655-3.293-5.984-3.426a8.167 8.167 0 0 0-3.207.449c-1.035.368-2.001 1.64-2.9 1.9-.698.204-2.685-.46-3.441-.508-1.395-.089-2.798-.05-4.192.034-1.63.096-5.376 1.263-6.913.877-1.015-.255-2.209-1.781-3.381-2.164C11.853.61 10.467.468 9.178.954c-2.285.864-4 3.552-4.053 5.942-.028 1.255.655 2.115.79 3.25.203 1.716.437.357-.487 1.726-.47.697-1.295 1.31-1.824 1.982C.779 17.44-.28 22.732.974 27.074c3.159 10.94 13.668 15.394 24.44 14.793 9.25-.516 23.564-7.718 22.413-18.698" fill="#FFF" mask="url(#m)"/></g></g><g fill="#000"><path d="M118 150c0 5.372 6.158 9 14 9s14-3.628 14-9c0-1.105-.95-2-2-2-1.293 0-1.87.905-2 2-1.242 2.938-4.317 4.716-10 5-5.683-.284-8.758-2.062-10-5-.13-1.095-.707-2-2-2-1.05 0-2 .895-2 2z" fill-opacity=".6" fill-rule="nonzero"/><path d="M120 130c0 4.418 5.373 8 12 8s12-3.582 12-8" fill-opacity=".16"/><g transform="translate(76 90)" fill-opacity=".6"><circle cx="30" cy="22" r="6"/><circle cx="82" cy="22" r="6"/></g><g fill-rule="nonzero" fill-opacity=".6"><path d="M91.63 99.159c3.915-5.51 14.648-8.598 23.893-6.328a2 2 0 0 0 .954-3.884c-10.737-2.637-23.165.94-28.107 7.894a2 2 0 0 0 3.26 2.318zM172.37 99.159c-3.915-5.51-14.648-8.598-23.893-6.328a2 2 0 0 1-.954-3.884c10.737-2.637 23.165.94 28.108 7.894a2 2 0 0 1-3.26 2.318z"/></g></g><mask id="o" fill="#fff"><use xlink:href="#n"/></mask><g transform="translate(-1)" mask="url(#o)"><mask id="q" fill="#fff"><use xlink:href="#p"/></mask><use fill="#252E32" xlink:href="#p"/><path d="M0 0h264v280H0z" transform="translate(1)" fill="#2C1B18" mask="url(#q)"/></g></g></g><text font-family="Nunito-SemiBold, Nunito" font-size="45" font-weight="500" fill="#000"><tspan x="346" y="494">Jason</tspan></text><text font-family="Nunito-Regular, Nunito" font-size="30" fill="#000"><tspan x="134" y="608">He was in a severe car crash a few </tspan> <tspan x="134" y="649">months ago and is currently recovering. </tspan>  <tspan x="134" y="731">He has been recommended a </tspan> <tspan x="532.43" y="731" font-family="Nunito-Bold, Nunito" font-weight="bold">lengthy</tspan> <tspan x="636.08" y="731"> </tspan> <tspan x="134" y="772">rehabilitation process. </tspan>  <tspan x="134" y="854">He is very </tspan> <tspan x="275.09" y="854" font-family="Nunito-Bold, Nunito" font-weight="bold">depressed and isolated</tspan> <tspan x="593.57" y="854"> and </tspan> <tspan x="134" y="895">seems to be losing faith in the </tspan> <tspan x="134" y="936">rehabilitation exercises as he </tspan> <tspan x="525.32" y="936" font-family="Nunito-Bold, Nunito" font-weight="bold">cannot </tspan> <tspan x="134" y="977" font-family="Nunito-Bold, Nunito" font-weight="bold">see his progress</tspan> <tspan x="357.23" y="977">.</tspan></text><text font-family="Nunito-SemiBold, Nunito" font-size="25" font-weight="500" fill="#686767"><tspan x="203.425" y="535">member of the varsity rowing team</tspan></text></g></svg>
